packages/design-system/src/icons/collapse.svg

<svg id="strib-collapse" viewBox="0 0 16 16" fill="currentcolor" class="strib-icon strib-collapse" xmlns="http://www.w3.org/2000/svg" width="16" height="16">
  <path d="M2 9v1h3.293L1 14.291l.707.709L6 10.707V14h1V9zm13-7.292L14.296 1 10 5.293V2H9v5h5V6h-3.293z"/>
</svg>

<svg width="16" height="16" viewBox="0 0 16 16" fill="none" xmlns="http://www.w3.org/2000/svg">
<path d="M2 9V10H5.293L1 14.291L1.707 15L6 10.707V14H7V9H2ZM15 1.708L14.296 1L10 5.293V2H9V7H14V6H10.707L15 1.708Z" fill="currentcolor"/>
</svg>
